X:123
T: WAS TRUG MARIA UNTER IHREM HERZEN
N: E1189
O: Europa, Mitteleuropa, Deutschland, Westfalen, Paderborn
R: Ansinge -, Brauchtums - Lied, Kirchen - Fest, Silvester, Namenstag
M: 2/4
L: 1/16
K: G
D2 | G2G2G2A2 | B2A2G2G2 |
B4dcBA | B4G2
GB | d2d2d2d2 | e2d2c2B2 |
A2B2c2c2 | d2c2B2A2 |
B4dcBA | B4G2

@@@ Tune index: 4807
